LucasHints/Assets.xcassets/glyphs/inventory/bandage.imageset/bandage.svg

<svg enable-background="new 0 0 122.88 122.88" viewBox="0 0 122.88 122.88" xmlns="http://www.w3.org/2000/svg"><path clip-rule="evenodd" d="m3.52 16.22 12.7-12.7c4.69-4.69 12.37-4.69 17.07 0l86.07 86.07c4.69 4.69 4.69 12.37 0 17.07l-12.7 12.7c-4.69 4.69-12.37 4.69-17.07 0l-86.07-86.07c-4.69-4.7-4.69-12.38 0-17.07zm79.51 75.85c1.22-1.22 3.19-1.22 4.41 0 .66.66.96 1.53.91 2.39.02.82-.29 1.64-.91 2.27-1.22 1.22-3.19 1.22-4.41 0-.65-.66-.96-1.53-.91-2.39-.01-.82.29-1.65.91-2.27zm-42.63-36.39 15.28-15.28c.78-.78 2.05-.78 2.83 0l23.97 23.97c.78.78.78 2.05 0 2.83l-15.28 15.28c-.78.78-2.05.78-2.83 0l-23.97-23.97c-.78-.78-.78-2.05 0-2.83zm-10.69-15.12c-1.15.51-2.54.3-3.48-.64-1.22-1.22-1.22-3.19 0-4.41.32-.32.7-.56 1.11-.71 1.15-.51 2.54-.3 3.48.64 1.22 1.22 1.22 3.19 0 4.41-.33.33-.71.56-1.11.71zm-7.28-12.02c.02.82-.29 1.64-.91 2.27-1.22 1.22-3.19 1.22-4.41 0-.66-.66-.96-1.53-.91-2.39-.02-.82.29-1.64.91-2.27 1.22-1.22 3.19-1.22 4.41 0 .66.65.96 1.53.91 2.39zm17.5-2.32c.58.58.89 1.34.91 2.11.05.86-.25 1.74-.91 2.4-1.22 1.22-3.19 1.22-4.41 0-.58-.58-.89-1.34-.91-2.11-.05-.86.25-1.74.91-2.4 1.22-1.21 3.19-1.21 4.41 0zm-9.12-9.12c1.22 1.22 1.22 3.19 0 4.41-.96.96-2.38 1.16-3.53.62-.38-.15-.74-.38-1.05-.69-1.22-1.22-1.22-3.19 0-4.41.96-.95 2.38-1.16 3.53-.62.39.16.74.39 1.05.69zm64.82 89.39c-1.15.51-2.54.3-3.48-.64-1.22-1.22-1.22-3.19 0-4.41.33-.33.7-.56 1.11-.71 1.15-.51 2.54-.3 3.48.64 1.22 1.22 1.22 3.19 0 4.41-.33.32-.71.55-1.11.71zm10.22-14.35c.58.58.89 1.34.91 2.11.06.86-.25 1.74-.91 2.4-1.22 1.22-3.19 1.22-4.41 0-.58-.58-.89-1.34-.91-2.11-.05-.86.25-1.74.91-2.4 1.22-1.21 3.2-1.21 4.41 0zm-9.12-9.12c1.22 1.22 1.22 3.19 0 4.41-.95.95-2.38 1.16-3.53.62-.38-.15-.74-.38-1.05-.69-1.22-1.22-1.22-3.19 0-4.41.96-.96 2.38-1.16 3.53-.62.39.16.74.39 1.05.69z" fill-rule="evenodd"/></svg>

<?xml version="1.0" encoding="utf-8"?><svg version="1.1" id="Layer_1" xmlns="http://www.w3.org/2000/svg" xmlns:xlink="http://www.w3.org/1999/xlink" x="0px" y="0px" viewBox="0 0 122.88 122.88" style="enable-background:new 0 0 122.88 122.88" xml:space="preserve"><style type="text/css">.st0{fill-rule:evenodd;clip-rule:evenodd;}</style><g><path class="st0" d="M3.52,16.22l12.7-12.7c4.69-4.69,12.37-4.69,17.07,0l86.07,86.07c4.69,4.69,4.69,12.37,0,17.07l-12.7,12.7 c-4.69,4.69-12.37,4.69-17.07,0L3.52,33.29C-1.17,28.59-1.17,20.91,3.52,16.22L3.52,16.22z M83.03,92.07 c1.22-1.22,3.19-1.22,4.41,0c0.66,0.66,0.96,1.53,0.91,2.39c0.02,0.82-0.29,1.64-0.91,2.27c-1.22,1.22-3.19,1.22-4.41,0 c-0.65-0.66-0.96-1.53-0.91-2.39C82.11,93.52,82.41,92.69,83.03,92.07L83.03,92.07z M40.4,55.68L55.68,40.4 c0.78-0.78,2.05-0.78,2.83,0l23.97,23.97c0.78,0.78,0.78,2.05,0,2.83L67.2,82.48c-0.78,0.78-2.05,0.78-2.83,0L40.4,58.51 C39.62,57.73,39.62,56.46,40.4,55.68L40.4,55.68z M29.71,40.56c-1.15,0.51-2.54,0.3-3.48-0.64c-1.22-1.22-1.22-3.19,0-4.41 c0.32-0.32,0.7-0.56,1.11-0.71c1.15-0.51,2.54-0.3,3.48,0.64c1.22,1.22,1.22,3.19,0,4.41C30.49,40.18,30.11,40.41,29.71,40.56 L29.71,40.56z M22.43,28.54c0.02,0.82-0.29,1.64-0.91,2.27c-1.22,1.22-3.19,1.22-4.41,0c-0.66-0.66-0.96-1.53-0.91-2.39 c-0.02-0.82,0.29-1.64,0.91-2.27c1.22-1.22,3.19-1.22,4.41,0C22.18,26.8,22.48,27.68,22.43,28.54L22.43,28.54z M39.93,26.22 c0.58,0.58,0.89,1.34,0.91,2.11c0.05,0.86-0.25,1.74-0.91,2.4c-1.22,1.22-3.19,1.22-4.41,0c-0.58-0.58-0.89-1.34-0.91-2.11 c-0.05-0.86,0.25-1.74,0.91-2.4C36.74,25.01,38.71,25.01,39.93,26.22L39.93,26.22z M30.81,17.1c1.22,1.22,1.22,3.19,0,4.41 c-0.96,0.96-2.38,1.16-3.53,0.62c-0.38-0.15-0.74-0.38-1.05-0.69c-1.22-1.22-1.22-3.19,0-4.41c0.96-0.95,2.38-1.16,3.53-0.62 C30.15,16.57,30.5,16.8,30.81,17.1L30.81,17.1z M95.63,106.49c-1.15,0.51-2.54,0.3-3.48-0.64c-1.22-1.22-1.22-3.19,0-4.41 c0.33-0.33,0.7-0.56,1.11-0.71c1.15-0.51,2.54-0.3,3.48,0.64c1.22,1.22,1.22,3.19,0,4.41C96.41,106.1,96.03,106.33,95.63,106.49 L95.63,106.49z M105.85,92.14c0.58,0.58,0.89,1.34,0.91,2.11c0.06,0.86-0.25,1.74-0.91,2.4c-1.22,1.22-3.19,1.22-4.41,0 c-0.58-0.58-0.89-1.34-0.91-2.11c-0.05-0.86,0.25-1.74,0.91-2.4C102.66,90.93,104.64,90.93,105.85,92.14L105.85,92.14z M96.73,83.02c1.22,1.22,1.22,3.19,0,4.41c-0.95,0.95-2.38,1.16-3.53,0.62c-0.38-0.15-0.74-0.38-1.05-0.69 c-1.22-1.22-1.22-3.19,0-4.41c0.96-0.96,2.38-1.16,3.53-0.62C96.07,82.49,96.42,82.72,96.73,83.02L96.73,83.02z"/></g></svg>
